X:1
T:12 German Dances
T:12 German Dances
T:D. 420 No. 2 in A Major 
T:Franz Schubert
C:Franz Schubert
%%score { 1 | ( 2 3 ) }
L:1/8
Q:1/4=120
M:3/4
K:A
V:1 treble nm="Piano" snm="Pno."
V:2 bass 
V:3 bass 
V:1
!p! (c2 | d2) f2 B2- | B2 (^ABcd) | e2 a2 (c2- | cAGA Bc | d2) f2 B2- | B2 (^ABcd) | ce=Ac BG | %8
 A4 ::{/f} e^d | (e2 f2 c2) | (e2 d2){/e} dc | (d2 f2 B2) | (d2 c2){/f} e^d | (e2 a2 g2) | %15
 (^efgf =ed) | (cBed cB) | A4 :| %18
V:2
 z2 | E,2 [G,DE]2 [G,DE]2 | E,2 [G,DE]2 [G,DE]2 | E,2 [A,CE]2 [A,CE]2 | E,2 [A,CE]2 [A,CE]2 | %5
 E,2 [G,DE]2 [G,DE]2 | E,2 [G,DE]2 [G,DE]2 | [A,C]4 [E,D]2 | [A,C]4 :: z2 | z2 [^A,CE]2 [A,CE]2 | %11
 z2 [B,DE]2 [B,DE]2 | z2 [G,DE]2 [G,DE]2 | z2 [CE]2 [CE]2 | [C,A,]2 [C,A,]2 [C,A,]2 | %15
 [D,A,]4 [E,B,]2 | [E,G,D]2 [E,G,D]2 [E,G,D]2 | [A,C]4 :| %18
V:3
 x2 | x6 | x6 | x6 | x6 | x6 | x6 | x6 | x4 :: x2 | E,6 | E,6 | E,6 | A,6 | x6 | x6 | x6 | x4 :| %18

